X:21
T:Saksleken (pols)
R:rorospols
Z:StorBrekkingen Track 6
M:9/8
L:1/8
K:D
|: ABc d2e f2d | dc2 e3- e2f | geg fdf e2c | def dc2 c2B
| ABc cE2 E2c | cAc BGB A2F | D2E FDF ECE | D3 D3- D3 :|
|: a3 af2 d2f | geg fdf e2c | ABc d3 f2d | dc2 e3- e3
|  a3 af2 d2f | geg fdf e2c | ABc d3 f2d | dc2 d3- d3  :|
